X:1
T:The Star Spangled Banner 
T:Jace Elliott 14 February 2020 
T:for Solo Violin
%%score ( 1 2 )
L:1/8
Q:1/4=71
M:3/4
K:G
V:1 treble nm="Violin" snm="Vln."
V:2 treble 
V:1
"^Adagio""_pensivo\n" (d>B) | G2 (B2 d2) | g4 (b>a) | g2 (B2 ^c2) | d4 (dd) | (b3 a) g2 | %6
 f4 (e>f) | g2 g2 d2 | B2 G2 (d>B) | [B,G]2 ([GB]2 [Fd]2) |{/D} [Bg]4{/D} (ba) | [EBg]2 (B2 ^c2) | %12
 [Fd]4 ([Ad][Ad]) | ([Gdb]3 [ca]) [Bg]2 | [df]4 ([ce]>[cf]) | [Bg]2 [dg]2 [Bd]2 | %16
 [GB]2 [B,G]2 ([gb]>[gb]) | ([gb]2 [ac']2) [bd']2 | [bd']4 ([ac'][gb]) |{/D} ([fa]2 [gb]2) [ac']2 | %20
{/D} [ac']4{/D} [ac']2 |{/D} ([gb]3 [da]) [DBg]2 | [Dcf]4 ([ce]>[cf]) | [DBg]2 (B2 ^c2) | %24
 d4 [Dd]2 | g2 g2 (gf) |{/[G,E]} e2 e2 e2 | (7:4:7a/(^d/e/f/^g/a/b/) c'b [E=ca][DB=g] | %28
 [DAg]2 !fermata![CDAf]2 [Ad][Ad] | [B,DBg]3 [da] [gb][ac'] | [bd']2 !fermata![_bg']2 [_E_Bg][ca] | %31
{/D} [gb]3 [ac']{/D} a2 | [G,Dc_a]2 ([Bg][^Af]) !fermata![G,DBg]2 |] %33
V:2
 x2 | x6 | x6 | x6 | x6 | x6 | x6 | x6 | x6 | x6 | x4 B2 | x2 G4 | x6 | x6 | x6 | x6 | x6 | x6 | %18
 x6 | x6 | x6 | x6 | x6 | x2 G4 | (DE D)C B,A, | [G,DB]2 [G,DB]2 [G,GB]2 | (cd){/E} (cB){/E} d2 | %27
 [E^c] x e x3 | x6 | x6 | x6 | x4 gf | x6 |] %33

